icons/media/recording-square-24.svg

<svg width="24" height="24" viewBox="0 0 24 24" fill="none" xmlns="http://www.w3.org/2000/svg">
<path fill-rule="evenodd" clip-rule="evenodd" d="M3.75 2C2.7835 2 2 2.7835 2 3.75V20.25C2 21.2165 2.7835 22 3.75 22H20.25C21.2165 22 22 21.2165 22 20.25V3.75C22 2.7835 21.2165 2 20.25 2H3.75ZM3.5 3.75C3.5 3.61193 3.61193 3.5 3.75 3.5H20.25C20.3881 3.5 20.5 3.61193 20.5 3.75V20.25C20.5 20.3881 20.3881 20.5 20.25 20.5H3.75C3.61193 20.5 3.5 20.3881 3.5 20.25V3.75Z" fill="black"/>
<path fill-rule="evenodd" clip-rule="evenodd" d="M12 5C12.4142 5 12.75 5.33579 12.75 5.75V18.25C12.75 18.6642 12.4142 19 12 19C11.5858 19 11.25 18.6642 11.25 18.25V5.75C11.25 5.33579 11.5858 5 12 5ZM9 8C9.41421 8 9.75 8.33579 9.75 8.75L9.75 15.25C9.75 15.6642 9.41421 16 9 16C8.58579 16 8.25 15.6642 8.25 15.25L8.25 8.75C8.25 8.33579 8.58579 8 9 8ZM15 8C15.4142 8 15.75 8.33579 15.75 8.75V15.25C15.75 15.6642 15.4142 16 15 16C14.5858 16 14.25 15.6642 14.25 15.25V8.75C14.25 8.33579 14.5858 8 15 8ZM6 10C6.41421 10 6.75 10.3358 6.75 10.75V13.25C6.75 13.6642 6.41421 14 6 14C5.58579 14 5.25 13.6642 5.25 13.25V10.75C5.25 10.3358 5.58579 10 6 10ZM18 10C18.4142 10 18.75 10.3358 18.75 10.75V13.25C18.75 13.6642 18.4142 14 18 14C17.5858 14 17.25 13.6642 17.25 13.25V10.75C17.25 10.3358 17.5858 10 18 10Z" fill="black"/>
</svg>

<svg xmlns="http://www.w3.org/2000/svg" width="24" height="24"><path fill-rule="evenodd" d="M3.75 2A1.75 1.75 0 002 3.75v16.5c0 .966.784 1.75 1.75 1.75h16.5A1.75 1.75 0 0022 20.25V3.75A1.75 1.75 0 0020.25 2H3.75zM3.5 3.75a.25.25 0 01.25-.25h16.5a.25.25 0 01.25.25v16.5a.25.25 0 01-.25.25H3.75a.25.25 0 01-.25-.25V3.75z"/><path fill-rule="evenodd" d="M12 5a.75.75 0 01.75.75v12.5a.75.75 0 01-1.5 0V5.75A.75.75 0 0112 5zM9 8a.75.75 0 01.75.75v6.5a.75.75 0 01-1.5 0v-6.5A.75.75 0 019 8zm6 0a.75.75 0 01.75.75v6.5a.75.75 0 01-1.5 0v-6.5A.75.75 0 0115 8zm-9 2a.75.75 0 01.75.75v2.5a.75.75 0 01-1.5 0v-2.5A.75.75 0 016 10zm12 0a.75.75 0 01.75.75v2.5a.75.75 0 01-1.5 0v-2.5A.75.75 0 0118 10z"/></svg>
